Newaita/actions/22/align-vertical-center.svg

<?xml version="1.0" encoding="UTF-8"?>
<svg xmlns="http://www.w3.org/2000/svg" xmlns:xlink="http://www.w3.org/1999/xlink" width="22pt" height="22pt" viewBox="0 0 22 22" version="1.1">
<g id="surface1">
<path style=" stroke:none;fill-rule:nonzero;fill:rgb(100%,43.921569%,26.274511%);fill-opacity:0.988235;" d="M 2.5 10.40625 C 2.125 10.40625 1.820312 10.710938 1.820312 11.085938 C 1.820312 11.464844 2.125 11.769531 2.5 11.769531 L 4.09375 11.769531 L 4.09375 10.40625 Z M 8.640625 10.40625 L 8.640625 11.769531 L 13.1875 11.769531 L 13.1875 10.40625 Z M 17.738281 10.40625 L 17.738281 11.769531 L 19.328125 11.769531 C 19.707031 11.769531 20.011719 11.464844 20.011719 11.085938 C 20.011719 10.710938 19.707031 10.40625 19.328125 10.40625 Z M 17.738281 10.40625 "/>
<path style=" stroke:none;fill-rule:nonzero;fill:rgb(25.882354%,25.882354%,25.882354%);fill-opacity:0.988235;" d="M 19.101562 13.359375 C 19.101562 14.117188 18.492188 14.726562 17.738281 14.726562 L 13.1875 14.726562 C 12.433594 14.726562 11.824219 14.117188 11.824219 13.359375 L 11.824219 8.8125 C 11.824219 8.058594 12.433594 7.449219 13.1875 7.449219 L 17.738281 7.449219 C 18.492188 7.449219 19.101562 8.058594 19.101562 8.8125 Z M 17.738281 12.90625 L 17.738281 9.269531 C 17.738281 9.015625 17.535156 8.8125 17.28125 8.8125 L 13.644531 8.8125 C 13.390625 8.8125 13.1875 9.015625 13.1875 9.269531 L 13.1875 12.90625 C 13.1875 13.15625 13.390625 13.359375 13.644531 13.359375 L 17.28125 13.359375 C 17.535156 13.359375 17.738281 13.15625 17.738281 12.90625 Z M 17.738281 12.90625 "/>
<path style=" stroke:none;fill-rule:nonzero;fill:rgb(25.882354%,25.882354%,25.882354%);fill-opacity:0.988235;" d="M 8.640625 3.128906 C 9.398438 3.128906 10.003906 3.738281 10.003906 4.492188 L 10.003906 17.679688 C 10.003906 18.4375 9.398438 19.046875 8.640625 19.046875 L 4.09375 19.046875 C 3.335938 19.046875 2.730469 18.4375 2.730469 17.679688 L 2.730469 4.492188 C 2.730469 3.738281 3.335938 3.128906 4.09375 3.128906 Z M 8.1875 4.492188 L 4.546875 4.492188 C 4.296875 4.492188 4.09375 4.695312 4.09375 4.945312 L 4.09375 17.226562 C 4.09375 17.480469 4.296875 17.679688 4.546875 17.679688 L 8.1875 17.679688 C 8.4375 17.679688 8.640625 17.480469 8.640625 17.226562 L 8.640625 4.945312 C 8.640625 4.695312 8.4375 4.492188 8.1875 4.492188 Z M 8.1875 4.492188 "/>
</g>
</svg>

<svg xmlns="http://www.w3.org/2000/svg" width="22pt" height="22pt" viewBox="0 0 22 22"><g fill-opacity=".988"><path d="M2.5 10.406a.681.681 0 1 0 0 1.363h1.594v-1.363zm6.14 0v1.364h4.547v-1.364zm9.098 0v1.364h1.59a.682.682 0 1 0 0-1.364zm0 0" fill="#ff7043"/><path d="M19.102 13.36c0 .757-.61 1.367-1.364 1.367h-4.55c-.754 0-1.364-.61-1.364-1.368V8.813c0-.754.61-1.364 1.364-1.364h4.55c.754 0 1.364.61 1.364 1.364zm-1.364-.454V9.27a.455.455 0 0 0-.457-.457h-3.636a.455.455 0 0 0-.457.457v3.636c0 .25.203.453.457.453h3.636a.454.454 0 0 0 .457-.453zm0 0M8.64 3.129c.758 0 1.364.61 1.364 1.363V17.68a1.36 1.36 0 0 1-1.363 1.367H4.094A1.36 1.36 0 0 1 2.73 17.68V4.492A1.36 1.36 0 0 1 4.094 3.13zm-.453 1.363h-3.64a.453.453 0 0 0-.453.453v12.282c0 .253.203.453.453.453h3.64c.25 0 .454-.2.454-.453V4.945a.453.453 0 0 0-.454-.453zm0 0" fill="#424242"/></g></svg>
